lite/images/sprite/ico-base/ico-edit__xl.svg

<?xml version="1.0" encoding="utf-8"?>
<!DOCTYPE svg PUBLIC "-//W3C//DTD SVG 1.1//EN" "http://www.w3.org/Graphics/SVG/1.1/DTD/svg11.dtd">
<svg version="1.1" baseProfile="full"
 xmlns="http://www.w3.org/2000/svg"
 xmlns:xlink="http://www.w3.org/1999/xlink"
 xmlns:ev="http://www.w3.org/2001/xml-events" 
  height="38px" 
  width="39px" 
>
<g >
<path fill="rgb( 210, 210, 210 )"
 d="M31.307,3.95299999999997 C32.152,3.95299999999997 32.966,4.339 33.793,5.13200000000001 C34.7809999999999,6.07900000000001 35.29,6.99099999999999 35.304,7.84100000000001 C35.319,8.71699999999998 34.819,9.685 33.818,10.719 C32.9400000000001,11.625 26.074,18.41 13.408,30.887 C13.408,30.887 12.438,31.843 12.438,31.843 C10.987,32.292 10.1559999999999,30.522 7.52800000000002,31.37 C8.375,28.576 6.74300000000005,28.087 7.19600000000003,26.49 C9.90300000000002,23.786 27.799,5.91699999999997 28.479,5.24599999999998 C28.612,5.11399999999998 29.8200000000001,3.95299999999997 31.307,3.95299999999997 M31.307,0.80200000000002 C28.687,0.80200000000002 26.776,2.49400000000003 26.255,3.012 C25.518,3.74000000000001 4.62900000000002,24.6 4.62900000000002,24.6 C4.46500000000003,24.767 4.34500000000003,24.97 4.28399999999999,25.197 C3.71799999999996,27.288 0.88199999999995,35.277 0.85500000000002,35.369 C0.70799999999997,35.846 0.83900000000006,36.364 1.18899999999996,36.71 C1.44100000000003,36.963 1.77599999999995,37.096 2.12,37.096 C2.25599999999997,37.096 2.39200000000005,37.076 2.52599999999995,37.034 C2.62199999999996,37.002 12.202,35.198 13.779,34.728 C13.987,34.667 14.176,34.554 14.331,34.402 C15.326,33.421 34.527,14.518 36.081,12.912 C37.688,11.255 38.487,9.53100000000001 38.456,7.78699999999998 C38.427,6.06299999999999 37.588,4.404 35.974,2.85599999999999 C34.552,1.49400000000003 32.982,0.80200000000002 31.307,0.80200000000002 C31.307,0.80200000000002 31.307,0.80200000000002 31.307,0.80200000000002 Z "/>
</g>
</svg>

<?xml version="1.0" encoding="utf-8"?><svg baseProfile="full" xmlns="http://www.w3.org/2000/svg" height="38" width="39"><path fill="rgb( 210, 210, 210 )" d="M31.307 3.953c.845 0 1.66.386 2.486 1.18.988.946 1.497 1.858 1.51 2.708.016.877-.484 1.845-1.485 2.88-.878.905-7.744 7.69-20.41 20.167 0 0-.97.956-.97.956-1.45.45-2.282-1.32-4.91-.473.847-2.794-.785-3.283-.332-4.88C9.903 23.786 27.8 5.917 28.48 5.246c.132-.132 1.34-1.293 2.827-1.293m0-3.15c-2.62 0-4.53 1.69-5.052 2.21C25.518 3.74 4.63 24.6 4.63 24.6c-.165.167-.285.37-.346.597-.566 2.09-3.402 10.08-3.43 10.172-.146.476-.015.994.335 1.34.25.253.586.386.93.386.136 0 .272-.02.406-.062.096-.032 9.676-1.836 11.253-2.306.207-.06.396-.174.55-.326.996-.98 20.197-19.884 21.75-21.49 1.608-1.657 2.407-3.38 2.376-5.125-.03-1.724-.868-3.383-2.482-4.93C34.552 1.493 32.982.8 31.307.8z"/></svg>
